src/objects/mail/1F4E6.svg

<?xml version="1.0" encoding="UTF-8"?>
<svg id="emoji" xmlns="http://www.w3.org/2000/svg" viewBox="0 0 72 72">
  <g id="grid">
    <path d="m68,4v64H4V4h64M72,0H0v72h72V0Z" fill="#b3b3b3"/>
    <path d="m12.9231,10.9583h46.1539c1.062,0,1.923.861,1.923,1.923h0v46.1539c0,1.0621-.861,1.9231-1.9231,1.9231H12.9231c-1.0621,0-1.9231-.861-1.9231-1.9231h0V12.8814c0-1.0621.861-1.9231,1.9231-1.9231h0Z" fill="none" stroke="#00a5ff" stroke-miterlimit="10" stroke-width=".1"/>
    <rect x="16" y="4" width="40" height="64" rx="2.2537" ry="2.2537" fill="none" stroke="#00a5ff" stroke-miterlimit="10" stroke-width=".1"/>
    <rect x="4" y="16" width="64" height="40" rx="2.2537" ry="2.2537" fill="none" stroke="#00a5ff" stroke-miterlimit="10" stroke-width=".1"/>
    <circle cx="36" cy="36" r="29" fill="none" stroke="#00a5ff" stroke-miterlimit="10" stroke-width=".1"/>
  </g>
  <g id="color">
    <path d="m34.3223,64.1641c-.1755,0-.3479-.0462-.5-.1338l-22.6894-13.3321c-.3095-.1787-.5001-.5089-.5-.8662l-.251-27.414c0-.3573.1905-.6875.5-.8662l24.1904-14.3318c.3096-.1777.6904-.1777,1,0l22.6905,13.0818c.4784.2759.6426.8874.3666,1.3659-.0875.1517-.2133.2777-.3647.3655l-23.1923,14.0001-.2501,27.1327c-.0015.5514-.4486.9977-1,.9981Z" fill="#f4aa41"/>
    <polygon points="36 64.5715 60.7589 50.4641 60.413 21.988 35.5724 36.0333 36 64.5715" fill="#f4aa41"/>
    <path d="m44.4415,37.9783c-.7769-.442-1.2545-1.2692-1.249-2.163v-4.1719l-22.8806-15.5295c.692-.4567,6.2179-3.6331,6.5605-3.7231l26.1492,13.0017c.3095.1787.5001.5089.5.8662v6.0244c-.0018,1.1714-.6264,2.2536-1.64,2.8409l-4.9444,2.8544c-.771.4505-1.7251.4505-2.4961,0h.0004Z" fill="#d0cfce"/>
    <path d="m44.8377,59.475v-3.336c.0017-1.0607.5674-2.0405,1.4853-2.5722l6.0733-3.5068c.8836-.5099,2.0133-.207,2.5232.6766.162.2808.2473.5992.2473.9234,0,0-.0232,1.6053-.3301,1.8473-2.0407,1.6093-9.9991,6.2783-9.999,5.9677Z" fill="#d0cfce"/>
    <path d="m44.4274,45.9464v.8683c0,.8266.67,1.4967,1.4967,1.4967.2628,0,.5209-.0692.7485-.2006l6.8048-3.76c.7054-.4073,1.14-1.1599,1.14-1.9745v-1.1184c0-.7976-.6466-1.4442-1.4442-1.4442-.2535,0-.5025.0667-.7221.1935l-6.7455,3.7252c-.7909.4567-1.2781,1.3006-1.2781,2.2139Z" fill="#3f3f3f"/>
    <polygon points="31.083 38.917 22.785 34.264 22.785 41.706 31.083 46.359 31.083 38.917" fill="#fff"/>
  </g>
  <g id="line">
    <polygon points="61.262 21.168 35.572 6.336 9.882 21.168 9.882 50.832 35.572 65.664 61.262 50.832 61.262 21.168" fill="none" stroke="#000" stroke-linecap="round" stroke-linejoin="round" stroke-width="2"/>
    <line x1="35.5724" y1="36.0333" x2="35.5724" y2="65.6642" fill="none" stroke="#000" stroke-linecap="round" stroke-linejoin="round" stroke-width="2"/>
    <line x1="35.6301" y1="36.0333" x2="9.9401" y2="21.2012" fill="none" stroke="#000" stroke-linecap="round" stroke-linejoin="round" stroke-width="2"/>
    <line x1="52.5169" y1="26.2504" x2="61.2624" y2="21.2012" fill="none" stroke="#000" stroke-linecap="round" stroke-linejoin="round" stroke-width="2"/>
    <line x1="35.5724" y1="36.0333" x2="44.1879" y2="31.0591" fill="none" stroke="#000" stroke-linecap="round" stroke-linejoin="round" stroke-width="2"/>
    <path d="m26.884,11.4565l25.6375,14.8018v6.0248c0,.8146-.4346,1.5672-1.14,1.9745l-4.9439,2.8543c-.7158.4133-1.6312.1681-2.0446-.5477-.1314-.2276-.2006-.4857-.2006-.7485v-4.7486l-25.5689-14.8183" fill="none" stroke="#000" stroke-linecap="round" stroke-linejoin="round" stroke-width="2"/>
    <polygon points="31.083 38.917 22.785 34.264 22.785 41.706 31.083 46.359 31.083 38.917" fill="none" stroke="#000" stroke-linecap="round" stroke-linejoin="round" stroke-width="2"/>
    <path d="m54.1667,54.6663v-3.0063c0-.4679-.3793-.8472-.8472-.8472-.1487,0-.2948.0391-.4236.1135l-6.073,3.5062c-.6098.3519-.9854,1.0025-.9853,1.7065v3.3361" fill="none" stroke="#000" stroke-linecap="round" stroke-linejoin="round" stroke-width="2"/>
    <path d="m44.4274,45.9464v.8683c0,.8266.67,1.4967,1.4967,1.4967.2628,0,.5209-.0692.7485-.2006l6.8048-3.76c.7054-.4073,1.14-1.1599,1.14-1.9745v-1.1184c0-.7976-.6466-1.4442-1.4442-1.4442-.2535,0-.5025.0667-.7221.1935l-6.7455,3.7252c-.7909.4567-1.2781,1.3006-1.2781,2.2139Z" fill="none" stroke="#000" stroke-linecap="round" stroke-linejoin="round" stroke-width="2"/>
  </g>
</svg>

<svg id="emoji" viewBox="0 0 72 72" xmlns="http://www.w3.org/2000/svg">
  <g id="grid">
    <path fill="#b3b3b3" d="M68,4V68H4V4H68m4-4H0V72H72V0Z"/>
    <path fill="none" stroke="#00a5ff" stroke-miterlimit="10" stroke-width="0.1" d="M12.9231,10.9583H59.077A1.923,1.923,0,0,1,61,12.8813V59.0352a1.9231,1.9231,0,0,1-1.9231,1.9231H12.9231A1.9231,1.9231,0,0,1,11,59.0352V12.8814a1.9231,1.9231,0,0,1,1.9231-1.9231Z"/>
    <rect x="16" y="4" rx="2.2537" width="40" height="64" fill="none" stroke="#00a5ff" stroke-miterlimit="10" stroke-width="0.1"/>
    <rect x="16" y="4" rx="2.2537" width="40" height="64" transform="translate(72) rotate(90)" fill="none" stroke="#00a5ff" stroke-miterlimit="10" stroke-width="0.1"/>
    <circle cx="36" cy="36" r="29" fill="none" stroke="#00a5ff" stroke-miterlimit="10" stroke-width="0.1"/>
  </g>
  <g id="color">
    <path fill="#f4aa41" d="M35.5723,66.6641a1.003,1.003,0,0,1-.5-.1338L9.3829,51.6982a1,1,0,0,1-.5-.8662l-.001-29.664a1,1,0,0,1,.5-.8662L35.0723,5.47a1.0045,1.0045,0,0,1,1,0L61.7628,20.3018a1,1,0,0,1,.0019,1.7314L36.629,36.61,36.5723,65.666a1.0008,1.0008,0,0,1-1,.9981Z"/>
    <polygon fill="#f4aa41" points="35.572 65 61.262 50.832 61.438 21.317 35.202 36.033 35.572 65"/>
    <path fill="#d0cfce" d="M44.4415,37.9783a2.471,2.471,0,0,1-1.249-2.163V31.6434l-25.07-14.5293a1,1,0,0,1-.001-1.7305l8.2608-4.792a1.0032,1.0032,0,0,1,1.0019-.001L53.0216,25.3924a1,1,0,0,1,.5.8662V32.283a3.2891,3.2891,0,0,1-1.64,2.8409l-4.9444,2.8544a2.4738,2.4738,0,0,1-2.4961,0Z"/>
    <path fill="#d0cfce" d="M45.3377,60.3412a1,1,0,0,1-.5-.8662V56.139a2.9781,2.9781,0,0,1,1.4853-2.5722L52.3963,50.06a1.8472,1.8472,0,0,1,2.7705,1.6v3.0069a1,1,0,0,1-.5.8662l-8.3291,4.8086a1.0011,1.0011,0,0,1-1,0Z"/>
    <path fill="#3f3f3f" d="M44.4274,45.9464v.8683a1.4967,1.4967,0,0,0,2.2451,1.2962l6.8048-3.76a2.28,2.28,0,0,0,1.14-1.9745V41.258a1.4442,1.4442,0,0,0-2.1663-1.2507l-6.7455,3.7252A2.5565,2.5565,0,0,0,44.4274,45.9464Z"/>
    <polygon fill="#fff" points="31.083 38.917 22.785 34.264 22.785 41.706 31.083 46.359 31.083 38.917"/>
  </g>
  <g id="line">
    <polygon fill="none" stroke="#000" stroke-linecap="round" stroke-linejoin="round" stroke-width="2" points="61.262 21.168 35.572 6.336 9.882 21.168 9.882 50.832 35.572 65.664 61.262 50.832 61.262 21.168"/>
    <line x1="35.5724" x2="35.5724" y1="36.0333" y2="65.6642" fill="none" stroke="#000" stroke-linecap="round" stroke-linejoin="round" stroke-width="2"/>
    <line x1="35.6301" x2="9.9401" y1="36.0333" y2="21.2012" fill="none" stroke="#000" stroke-linecap="round" stroke-linejoin="round" stroke-width="2"/>
    <line x1="52.5169" x2="61.2624" y1="26.2504" y2="21.2012" fill="none" stroke="#000" stroke-linecap="round" stroke-linejoin="round" stroke-width="2"/>
    <line x1="35.5724" x2="44.1879" y1="36.0333" y2="31.0591" fill="none" stroke="#000" stroke-linecap="round" stroke-linejoin="round" stroke-width="2"/>
    <path fill="none" stroke="#000" stroke-linecap="round" stroke-linejoin="round" stroke-width="2" d="M26.884,11.4565,52.5215,26.2583v6.0248a2.28,2.28,0,0,1-1.14,1.9745l-4.9439,2.8543a1.4967,1.4967,0,0,1-2.2451-1.2962V31.0671L18.6236,16.2488"/>
    <polygon fill="none" stroke="#000" stroke-linecap="round" stroke-linejoin="round" stroke-width="2" points="31.083 38.917 22.785 34.264 22.785 41.706 31.083 46.359 31.083 38.917"/>
    <path fill="none" stroke="#000" stroke-linecap="round" stroke-linejoin="round" stroke-width="2" d="M54.1667,54.6663V51.66a.8472.8472,0,0,0-1.2708-.7337l-6.073,3.5062a1.97,1.97,0,0,0-.9853,1.7065v3.3361"/>
    <path fill="none" stroke="#000" stroke-linecap="round" stroke-linejoin="round" stroke-width="2" d="M44.4274,45.9464v.8683a1.4967,1.4967,0,0,0,2.2451,1.2962l6.8048-3.76a2.28,2.28,0,0,0,1.14-1.9745V41.258a1.4442,1.4442,0,0,0-2.1663-1.2507l-6.7455,3.7252A2.5565,2.5565,0,0,0,44.4274,45.9464Z"/>
  </g>
</svg>
